X: 26
T: Backovsko Horo
O: Bulgaria
F: http://www.youtube.com/watch?v=dPzjX_SwI5Q
F: http://www.youtube.com/watch?v=aAQwdbgXvqk
M: 6/8
L: 1/8
P:ABCAD
K: Bphr
Q:1/4=240
%%MIDI program 23
%%MIDI bassprog 43
%%MIDI gchord fzzfzz
P:A
|:"G"EFG "C"FFE|"G"F2E DEF|"D"D2C CDC|"G"B,2C D3|\
  EEF "C"GFE   |"A"F2E DEF|"D"D2C CDC|"G"B,6    :|
P:B
|:FG2 G3       |GF2 ED2   |"C"E3-E3  |EDE F3    |\
  "D"F6-       |F6-       |F6-       |F6        |
  "G"EFG G2G   |EGGFE2    |"C"EFGFED |EFD4-     |\
  "D"D6-       |D6-       |D6        :|
P:C
|:"C"E2zE2z    |ED2CB,2   |C3 CB,C   |"D"D6-    |
  D6-          |D6        |
  "C"E2zE2z    |ED2CB,2   |C3 CB,D   |"G"B,6-   |\
  B,6-         |B,6       :|
P:D
|:D3D2D        |D2CB,3    |D3 D3     |D3 D3     |\
  DCB, DCB,    |B,6       :|\
|:"C"E3E2E     |E2E EC2   |E3E2E     |E2E EC2   |\
  "G"CDD2D2    |D3 D3     |DCB, DCB, |B,6       :|



